X:5683
T:Gan ainm
R:Polka
S:
H:
N:
D:All-Ireland Fleadh 19
Z:Adrian Scahill
M:2/4
L:1/8
K:G
B2 BA/2B/2|dB gB|A>B AG|AB ce|\
dB GB|dB gB|A>B ce|AGG2:||\
e>f ge|dB Bd|cA Ac|BG B/2c/d|\
e>f ge|dB Bd|cA BA|G2G2:||
